<?xml version="1.0" encoding="UTF-8"?>
<map version="1.10" tiledversion="1.12.2" orientation="orthogonal" renderorder="right-down" width="30" height="50" tilewidth="40" tileheight="40" infinite="0" nextlayerid="10" nextobjectid="60">
 <editorsettings>
  <export target="example_map.lua" format="lua"/>
 </editorsettings>
 <tileset firstgid="1" source="../tilesets/example_tileset.tsx"/>
 <layer id="1" name="Tile Layer 1" width="30" height="50">
  <data encoding="csv">
0,0,0,0,0,0,0,0,0,0,0,0,0,0,0,0,0,0,0,0,0,0,0,0,0,0,0,0,0,0,
0,0,0,0,0,0,0,0,0,0,0,0,0,0,0,0,0,0,0,0,0,0,0,0,0,0,0,0,0,0,
0,0,0,0,0,0,0,0,0,0,0,0,0,0,0,0,0,0,0,0,0,0,0,0,0,0,0,0,0,0,
0,0,0,0,0,0,0,0,0,0,0,0,0,0,0,0,0,0,0,0,0,0,0,0,0,0,0,0,0,0,
0,0,0,0,0,23,23,23,23,23,23,23,23,23,23,23,23,23,23,23,23,23,23,23,23,0,0,0,0,0,
0,0,0,0,0,23,8,8,8,8,8,8,8,8,8,8,8,8,8,8,8,8,8,8,23,0,0,0,0,0,
0,0,0,0,0,23,8,8,8,8,8,8,8,8,8,8,8,8,8,8,8,8,8,8,23,0,0,0,0,0,
0,0,0,0,0,23,8,8,8,8,8,8,8,8,8,8,8,8,8,8,8,8,8,8,23,0,0,0,0,0,
0,0,0,0,0,23,8,8,8,8,8,8,8,8,8,8,8,8,8,8,8,8,8,8,23,0,0,0,0,0,
0,0,0,0,0,23,8,8,8,8,8,8,8,8,8,8,8,8,8,8,8,8,8,8,23,0,0,0,0,0,
0,0,0,0,0,23,8,8,8,8,8,8,8,8,8,8,8,8,8,8,8,8,8,8,23,0,0,0,0,0,
0,0,0,0,0,23,8,8,8,8,8,8,8,8,8,8,8,8,8,8,8,8,8,8,23,0,0,0,0,0,
0,0,0,0,0,23,8,8,8,8,8,8,8,8,8,8,8,8,8,8,8,8,8,8,23,0,0,0,0,0,
0,0,0,0,0,23,8,8,8,8,8,8,8,8,8,8,8,8,8,8,8,8,8,8,23,0,0,0,0,0,
0,0,0,0,0,23,8,8,8,8,8,8,8,8,8,8,8,8,8,8,8,8,8,8,23,0,0,0,0,0,
0,0,0,0,0,23,8,8,8,8,8,8,8,8,8,8,8,8,8,8,8,8,8,8,23,0,0,0,0,0,
0,0,0,0,0,23,8,8,8,8,8,8,8,8,8,8,8,8,8,8,8,8,8,8,23,0,0,0,0,0,
0,0,0,0,0,23,8,8,8,8,8,8,8,8,8,8,8,8,8,8,8,8,8,8,23,0,0,0,0,0,
0,0,0,0,0,23,8,8,8,8,8,8,8,8,8,8,8,8,8,8,8,8,8,8,23,0,0,0,0,0,
0,0,0,0,0,23,8,8,8,8,8,8,8,8,8,8,8,8,8,8,8,8,8,8,23,0,0,0,0,0,
0,0,0,0,0,23,8,8,8,8,8,8,8,8,8,8,8,8,8,8,8,8,8,8,23,0,0,0,0,0,
0,0,0,0,0,23,8,8,8,8,8,8,8,8,8,8,8,8,8,8,8,8,8,8,23,0,0,0,0,0,
0,0,0,0,0,23,8,8,8,8,23,23,8,8,8,8,8,8,23,23,8,8,8,8,23,0,0,0,0,0,
0,0,0,0,0,23,23,23,23,23,23,23,8,8,8,8,8,8,23,23,23,23,23,23,23,0,0,0,0,0,
0,0,0,0,0,23,8,8,8,8,23,23,8,8,8,8,8,8,23,23,8,8,8,8,23,0,0,0,0,0,
0,0,0,0,0,23,8,8,8,8,8,8,8,8,8,8,8,8,8,8,8,8,8,8,23,0,0,0,0,0,
0,0,0,0,0,23,8,8,8,8,14,14,8,8,8,8,8,8,14,14,8,8,8,8,23,0,0,0,0,0,
0,0,0,0,0,23,13,14,14,14,23,23,8,8,8,8,8,8,23,23,14,14,14,14,23,0,0,0,0,0,
0,0,0,0,0,23,23,23,23,23,23,23,8,8,8,8,8,8,23,23,23,23,23,23,23,0,0,0,0,0,
0,0,0,0,0,23,8,8,8,8,23,23,8,8,8,8,8,8,23,23,8,8,8,8,23,0,0,0,0,0,
0,0,0,0,0,23,8,8,8,8,8,8,8,8,8,8,8,8,8,8,8,8,8,8,23,0,0,0,0,0,
0,0,0,0,0,23,8,8,8,8,14,14,8,8,8,8,8,8,14,14,8,8,8,8,23,0,0,0,0,0,
0,0,0,0,0,23,14,14,14,14,23,23,8,8,8,8,8,8,23,23,14,14,14,14,23,0,0,0,0,0,
0,0,0,0,0,23,23,23,23,23,23,23,8,8,8,8,8,8,23,23,23,23,23,23,23,0,0,0,0,0,
0,0,0,0,0,23,8,8,8,8,23,23,8,8,8,8,8,8,23,23,8,8,8,8,23,0,0,0,0,0,
0,0,0,0,0,23,8,8,8,8,8,8,8,8,8,8,8,8,8,8,8,8,8,8,23,0,0,0,0,0,
0,0,0,0,0,23,8,8,8,8,14,14,8,8,8,8,8,8,14,14,8,8,8,8,23,0,0,0,0,0,
0,0,0,0,0,23,13,14,14,14,23,23,8,8,8,8,8,8,23,23,14,14,14,14,23,0,0,0,0,0,
0,0,0,0,0,23,23,23,23,23,23,23,8,8,8,8,8,8,23,23,23,23,23,23,23,0,0,0,0,0,
0,0,0,0,0,23,8,8,8,8,23,23,8,8,8,8,8,8,23,23,8,8,8,8,23,0,0,0,0,0,
0,0,0,0,0,23,8,8,8,8,8,8,8,8,8,8,8,8,8,8,8,8,8,8,23,0,0,0,0,0,
0,0,0,0,0,23,8,8,8,8,14,14,8,8,8,8,8,8,14,14,8,8,8,8,23,0,0,0,0,0,
0,0,0,0,0,23,14,14,14,14,23,23,8,8,8,8,8,8,23,23,14,14,14,14,23,0,0,0,0,0,
0,0,0,0,0,23,23,23,23,23,23,23,8,8,8,8,8,8,23,23,23,23,23,23,23,0,0,0,0,0,
0,0,0,0,0,23,11,11,11,11,23,23,8,8,8,8,8,8,23,23,8,8,8,8,23,0,0,0,0,0,
0,0,0,0,0,23,11,11,11,11,11,11,8,8,8,8,8,8,8,8,8,8,8,8,23,0,0,0,0,0,
0,0,0,0,0,23,11,11,11,11,14,14,8,8,8,8,8,8,14,14,8,8,8,8,23,0,0,0,0,0,
0,0,0,0,0,23,14,14,14,14,20,20,14,14,14,14,14,14,20,20,14,14,14,14,23,0,0,0,0,0,
0,0,0,0,0,20,20,20,20,20,0,0,20,20,20,20,20,20,0,0,20,20,20,20,20,0,0,0,0,0,
0,0,0,0,0,0,0,0,0,0,0,0,0,0,0,0,0,0,0,0,0,0,0,0,0,0,0,0,0,0
</data>
 </layer>
 <objectgroup color="#aa00ff" id="7" name="markers" visible="0" tintcolor="#aa00ff">
  <object id="31" name="spawn" x="602" y="1602">
   <point/>
  </object>
 </objectgroup>
 <objectgroup color="#0000ff" id="6" name="collision" visible="0" tintcolor="#0000ff">
  <object id="8" x="720" y="1280" width="80" height="120"/>
  <object id="9" x="400" y="1280" width="80" height="120"/>
  <object id="10" x="400" y="1480" width="80" height="120"/>
  <object id="11" x="400" y="1680" width="80" height="120"/>
  <object id="12" x="720" y="1680" width="80" height="120"/>
  <object id="13" x="720" y="1480" width="80" height="120"/>
  <object id="14" x="800" y="1520" width="160" height="40"/>
  <object id="15" x="800" y="1320" width="160" height="40"/>
  <object id="16" x="960" y="160" width="40" height="1759.12"/>
  <object id="17" x="800" y="1520" width="160" height="40"/>
  <object id="18" x="800" y="1720" width="160" height="40"/>
  <object id="22" x="200" y="1920" width="800" height="40"/>
  <object id="23" x="200" y="160" width="40" height="1760"/>
  <object id="24" x="240" y="1320" width="160" height="40"/>
  <object id="25" x="240" y="1520" width="160" height="40"/>
  <object id="26" x="240" y="1720" width="160" height="40"/>
  <object id="27" x="400" y="1880" width="80" height="40"/>
  <object id="34" x="720" y="1880" width="80" height="40"/>
  <object id="36" x="240" y="160" width="720" height="40"/>
  <object id="37" x="720" y="880" width="80" height="120"/>
  <object id="38" x="720" y="1080" width="80" height="120"/>
  <object id="39" x="400" y="1080" width="80" height="120"/>
  <object id="40" x="400" y="880" width="80" height="120"/>
  <object id="41" x="240" y="920" width="160" height="40"/>
  <object id="42" x="240" y="1120" width="160" height="40"/>
  <object id="43" x="800" y="920" width="160" height="40"/>
  <object id="44" x="800" y="1120" width="160" height="40"/>
 </objectgroup>
 <objectgroup color="#ff00ff" id="9" name="objects" tintcolor="#ff00ff">
  <object id="45" name="chest" x="320" y="880">
   <properties>
    <property name="money" type="int" value="999"/>
   </properties>
   <point/>
  </object>
  <object id="47" name="greedpurg_base" x="840" y="800" width="40" height="39.3333"/>
  <object id="51" name="enemy" x="880" y="1040">
   <properties>
    <property name="actor" value="mart"/>
    <property name="aura" type="bool" value="true"/>
    <property name="chase" type="bool" value="false"/>
    <property name="encounter" value="mart"/>
    <property name="enemy" value="mart"/>
    <property name="once" type="bool" value="false"/>
   </properties>
   <point/>
  </object>
  <object id="52" name="enemy" x="880" y="1240">
   <properties>
    <property name="actor" value="operator"/>
    <property name="aura" type="bool" value="true"/>
    <property name="chase" type="bool" value="false"/>
    <property name="encounter" value="operator"/>
    <property name="enemy" value="operator"/>
    <property name="once" type="bool" value="false"/>
   </properties>
   <point/>
  </object>
  <object id="53" name="enemy" x="880" y="1440">
   <properties>
    <property name="actor" value="VBO"/>
    <property name="aura" type="bool" value="true"/>
    <property name="chase" type="bool" value="false"/>
    <property name="encounter" value="VBO"/>
    <property name="enemy" value="VBO"/>
    <property name="once" type="bool" value="false"/>
   </properties>
   <point/>
  </object>
  <object id="54" name="enemy" x="880" y="1640">
   <properties>
    <property name="actor" value="kolona"/>
    <property name="aura" type="bool" value="true"/>
    <property name="chase" type="bool" value="false"/>
    <property name="encounter" value="kolona"/>
    <property name="enemy" value="kolona"/>
    <property name="once" type="bool" value="false"/>
   </properties>
   <point/>
  </object>
  <object id="56" name="enemy" x="880" y="1840">
   <properties>
    <property name="actor" value="scrapmaw"/>
    <property name="aura" type="bool" value="true"/>
    <property name="chase" type="bool" value="false"/>
    <property name="encounter" value="scrapmaw"/>
    <property name="enemy" value="scrapmaw"/>
    <property name="once" type="bool" value="false"/>
   </properties>
   <point/>
  </object>
  <object id="59" name="greedpurg_gift" x="840" y="800" width="40" height="39.3333"/>
 </objectgroup>
</map>
