<?xml version="1.0" encoding="UTF-8"?>
<map version="1.10" tiledversion="1.12.2" orientation="orthogonal" renderorder="right-down" width="50" height="30" tilewidth="40" tileheight="40" infinite="0" nextlayerid="5" nextobjectid="70">
 <editorsettings>
  <export target="null1_map.lua" format="lua"/>
 </editorsettings>
 <tileset firstgid="1" source="../tilesets/null1_tileset.tsx"/>
 <layer id="1" name="Tile Layer 1" width="50" height="30" locked="1">
  <data encoding="csv">
0,0,0,0,0,0,0,0,0,0,0,0,0,0,0,0,0,0,0,0,0,0,0,0,0,0,0,0,0,0,0,0,0,0,0,0,0,0,0,0,0,0,0,0,0,0,0,0,0,0,
0,0,0,0,0,0,0,0,0,0,0,0,0,0,0,0,0,0,0,0,0,0,0,0,0,0,0,0,0,0,0,0,0,0,0,0,0,0,0,0,0,0,0,0,0,0,0,0,0,0,
0,0,0,0,0,0,0,0,0,0,0,0,0,0,0,0,0,0,0,0,0,0,0,0,0,0,0,0,0,0,0,0,0,0,0,0,0,0,0,0,0,0,0,0,0,0,0,0,0,0,
0,0,0,0,0,0,0,0,0,0,0,0,0,0,0,0,0,0,0,0,0,0,0,0,0,0,0,0,0,0,0,0,0,0,0,0,0,0,0,0,0,0,0,0,0,0,0,0,0,0,
0,0,0,0,0,0,0,0,0,0,0,0,0,0,0,0,0,0,0,0,0,0,0,0,0,0,0,0,0,0,0,0,0,0,0,0,0,0,0,0,0,0,0,0,0,0,0,0,0,0,
0,0,0,0,0,0,0,0,0,0,0,0,0,0,0,0,0,0,0,0,0,0,0,0,0,0,0,0,0,0,0,0,0,0,0,0,0,0,0,0,0,0,0,0,0,0,0,0,0,0,
0,0,3,2,2,2,2,4,2,2,2,2,4,2,2,2,2,4,2,2,2,2,4,2,2,2,2,4,2,2,2,2,4,2,2,2,2,4,2,2,2,2,4,2,2,2,2,2684354563,0,0,
0,0,3758096386,1,1,1,1,3758096386,1,1,1,1,3758096386,1,1,1,1,3758096386,1,1,1,1,3758096386,1,1,1,1,3758096386,1,1,1,1,3758096386,1,1,1,1,3758096386,1,1,1,1,3758096386,1,1,1,1,3758096386,0,0,
0,0,3758096386,1,1,1,1,3758096386,1,1,1,1,3758096386,1,1,1,1,3758096386,1,1,1,1,3758096386,1,1,1,1,3758096386,1,1,1,1,3758096386,1,1,1,1,3758096386,1,1,1,1,3758096386,1,1,1,1,3758096386,0,0,
0,0,3758096386,1,1,1,1,3758096386,1,1,1,1,3758096386,1,1,1,1,3758096386,1,1,1,1,3758096386,1,1,1,1,3758096386,1,1,1,1,3758096386,1,1,1,1,3758096386,1,1,1,1,3758096386,1,1,1,1,3758096386,0,0,
0,0,3758096386,1,1,1,1,3758096386,1,1,1,1,3758096386,1,1,1,1,3758096386,1,1,1,1,3758096386,1,1,1,1,3758096386,1,1,1,1,3758096386,1,1,1,1,3758096386,1,1,1,1,3758096386,1,1,1,1,3758096386,0,0,
0,0,1610612739,2684354563,1,1,3221225477,3221225476,5,1,1,3221225477,3221225476,5,1,1,3221225477,3221225476,5,1,1,3221225477,3221225476,5,1,1,3221225477,3221225476,5,1,1,3221225477,3221225476,5,1,1,3221225477,3221225476,5,1,1,3221225477,3221225476,5,1,1,3,3221225475,0,0,
0,0,0,1610612738,1,1,1,1,1,1,1,1,1,1,1,1,1,1,1,1,1,1,1,1,1,1,1,1,1,1,1,1,1,1,1,1,1,1,1,1,1,1,1,1,1,1,1610612738,0,0,0,
0,0,0,1610612738,1,1,1,1,1,1,1,1,1,1,1,1,1,1,1,1,1,1,1,1,1,1,1,1,1,1,1,1,1,1,1,1,1,1,1,1,1,1,1,1,1,1,1610612738,0,0,0,
0,0,0,1610612738,1,1,1,1,1,1,1,1,1,1,1,1,1,1,1,1,1,1,1,1,1,1,1,1,1,1,1,1,1,1,1,1,1,1,1,1,1,1,1,1,1,1,1610612738,0,0,0,
0,0,0,1610612738,1,1,1,1,1,1,1,1,1,1,1,1,1,1,1,1,1,1,1,1,1,1,1,1,1,1,1,1,1,1,1,1,1,1,1,1,1,1,1,1,1,1,1610612738,0,0,0,
0,0,0,1610612738,1,1,1,1,1,1,1,1,1,1,1,1,1,1,1,1,1,1,1,1,1,1,1,1,1,1,1,1,1,1,1,1,1,1,1,1,1,1,1,1,1,1,1610612738,0,0,0,
0,0,0,1610612738,1,1,1,1,1,1,1,1,1,1,1,1,1,1,1,1,1,1,1,1,1,1,1,1,1,1,1,1,1,1,1,1,1,1,1,1,1,1,1,1,1,1,1610612738,0,0,0,
0,0,3,3221225475,3221225473,3221225473,3221225477,4,5,3221225473,3221225473,3221225477,4,5,3221225473,3221225473,3221225477,4,5,3221225473,3221225473,3221225477,4,5,3221225473,3221225473,3221225477,4,5,3221225473,3221225473,3221225477,4,5,3221225473,3221225473,3221225477,4,5,3221225473,3221225473,3221225477,4,5,3221225473,3221225473,1610612739,2684354563,0,0,
0,0,536870914,3221225473,3221225473,3221225473,3221225473,536870914,3221225473,3221225473,3221225473,3221225473,536870914,3221225473,3221225473,3221225473,3221225473,536870914,3221225473,3221225473,3221225473,3221225473,536870914,3221225473,3221225473,3221225473,3221225473,536870914,3221225473,3221225473,3221225473,3221225473,536870914,3221225473,3221225473,3221225473,3221225473,536870914,3221225473,3221225473,3221225473,3221225473,536870914,3221225473,3221225473,3221225473,3221225473,536870914,0,0,
0,0,536870914,3221225473,3221225473,3221225473,3221225473,536870914,3221225473,3221225473,3221225473,3221225473,536870914,3221225473,3221225473,3221225473,3221225473,536870914,3221225473,3221225473,3221225473,3221225473,536870914,3221225473,3221225473,3221225473,3221225473,536870914,3221225473,3221225473,3221225473,3221225473,536870914,3221225473,3221225473,3221225473,3221225473,536870914,3221225473,3221225473,3221225473,3221225473,536870914,3221225473,3221225473,3221225473,3221225473,536870914,0,0,
0,0,536870914,3221225473,3221225473,3221225473,3221225473,536870914,3221225473,3221225473,3221225473,3221225473,536870914,3221225473,3221225473,3221225473,3221225473,536870914,3221225473,3221225473,3221225473,3221225473,536870914,3221225473,3221225473,3221225473,3221225473,536870914,3221225473,3221225473,3221225473,3221225473,536870914,3221225473,3221225473,3221225473,3221225473,536870914,3221225473,3221225473,3221225473,3221225473,536870914,3221225473,3221225473,3221225473,3221225473,536870914,0,0,
0,0,536870914,3221225473,3221225473,3221225473,3221225473,536870914,3221225473,3221225473,3221225473,3221225473,536870914,3221225473,3221225473,3221225473,3221225473,536870914,3221225473,3221225473,3221225473,3221225473,536870914,3221225473,3221225473,3221225473,3221225473,536870914,3221225473,3221225473,3221225473,3221225473,536870914,3221225473,3221225473,3221225473,3221225473,536870914,3221225473,3221225473,3221225473,3221225473,536870914,3221225473,3221225473,3221225473,3221225473,536870914,0,0,
0,0,1610612739,3221225474,3221225474,3221225474,3221225474,3221225476,3221225474,3221225474,3221225474,3221225474,3221225476,3221225474,3221225474,3221225474,3221225474,3221225476,3221225474,3221225474,3221225474,3221225474,3221225476,3221225474,3221225474,3221225474,3221225474,3221225476,3221225474,3221225474,3221225474,3221225474,3221225476,3221225474,3221225474,3221225474,3221225474,3221225476,3221225474,3221225474,3221225474,3221225474,3221225476,3221225474,3221225474,3221225474,3221225474,3221225475,0,0,
0,0,0,0,0,0,0,0,0,0,0,0,0,0,0,0,0,0,0,0,0,0,0,0,0,0,0,0,0,0,0,0,0,0,0,0,0,0,0,0,0,0,0,0,0,0,0,0,0,0,
0,0,0,0,0,0,0,0,0,0,0,0,0,0,0,0,0,0,0,0,0,0,0,0,0,0,0,0,0,0,0,0,0,0,0,0,0,0,0,0,0,0,0,0,0,0,0,0,0,0,
0,0,0,0,0,0,0,0,0,0,0,0,0,0,0,0,0,0,0,0,0,0,0,0,0,0,0,0,0,0,0,0,0,0,0,0,0,0,0,0,0,0,0,0,0,0,0,0,0,0,
0,0,0,0,0,0,0,0,0,0,0,0,0,0,0,0,0,0,0,0,0,0,0,0,0,0,0,0,0,0,0,0,0,0,0,0,0,0,0,0,0,0,0,0,0,0,0,0,0,0,
0,0,0,0,0,0,0,0,0,0,0,0,0,0,0,0,0,0,0,0,0,0,0,0,0,0,0,0,0,0,0,0,0,0,0,0,0,0,0,0,0,0,0,0,0,0,0,0,0,0,
0,0,0,0,0,0,0,0,0,0,0,0,0,0,0,0,0,0,0,0,0,0,0,0,0,0,0,0,0,0,0,0,0,0,0,0,0,0,0,0,0,0,0,0,0,0,0,0,0,0
</data>
 </layer>
 <objectgroup color="#ff0000" id="2" name="markers" visible="0" locked="1">
  <object id="1" name="spawn" x="1000" y="600">
   <point/>
  </object>
 </objectgroup>
 <objectgroup color="#0000ff" id="3" name="collision" visible="0" locked="1">
  <object id="4" x="80" y="240" width="1840" height="40"/>
  <object id="5" x="80" y="920" width="1840" height="40"/>
  <object id="6" x="80" y="280" width="40" height="200"/>
  <object id="8" x="80" y="720" width="40" height="200"/>
  <object id="9" x="1880" y="280" width="40" height="200"/>
  <object id="11" x="1880" y="720" width="40" height="200"/>
  <object id="13" x="1680" y="760" width="40" height="160"/>
  <object id="14" x="1680" y="280" width="40" height="160"/>
  <object id="15" x="1640" y="440" width="120" height="40"/>
  <object id="16" x="1640" y="720" width="120" height="40"/>
  <object id="17" x="1480" y="760" width="40" height="160"/>
  <object id="18" x="1480" y="280" width="40" height="160"/>
  <object id="19" x="1440" y="440" width="120" height="40"/>
  <object id="20" x="1440" y="720" width="120" height="40"/>
  <object id="21" x="1240" y="720" width="120" height="40"/>
  <object id="22" x="1240" y="440" width="120" height="40"/>
  <object id="23" x="1280" y="280" width="40" height="160"/>
  <object id="24" x="1280" y="760" width="40" height="160"/>
  <object id="25" x="1080" y="280" width="40" height="160"/>
  <object id="26" x="1040" y="440" width="120" height="40"/>
  <object id="27" x="1040" y="720" width="120" height="40"/>
  <object id="28" x="1080" y="760" width="40" height="160"/>
  <object id="29" x="880" y="280" width="40" height="160"/>
  <object id="30" x="840" y="440" width="120" height="40"/>
  <object id="31" x="840" y="720" width="120" height="40"/>
  <object id="32" x="880" y="760" width="40" height="160"/>
  <object id="33" x="480" y="280" width="40" height="160"/>
  <object id="34" x="680" y="280" width="40" height="160"/>
  <object id="35" x="280" y="280" width="40" height="160"/>
  <object id="36" x="240" y="440" width="120" height="40"/>
  <object id="37" x="440" y="440" width="120" height="40"/>
  <object id="38" x="640" y="440" width="120" height="40"/>
  <object id="39" x="640" y="720" width="120" height="40"/>
  <object id="40" x="680" y="760" width="40" height="160"/>
  <object id="41" x="440" y="720" width="120" height="40"/>
  <object id="42" x="480" y="760" width="40" height="160"/>
  <object id="43" x="280" y="760" width="40" height="160"/>
  <object id="44" x="240" y="720" width="120" height="40"/>
  <object id="46" x="120" y="440" width="40" height="320"/>
  <object id="47" x="1840" y="440" width="40" height="320"/>
  <object id="56" x="1370" y="320" width="60" height="80"/>
  <object id="69" x="1360" y="800" width="80" height="80"/>
 </objectgroup>
 <objectgroup color="#ff00ff" id="4" name="objects">
  <object id="48" name="enemy" x="800" y="400">
   <properties>
    <property name="actor" value="mart"/>
    <property name="aura" type="bool" value="true"/>
    <property name="chase" type="bool" value="false"/>
    <property name="encounter" value="mart"/>
    <property name="enemy" value="mart"/>
    <property name="once" type="bool" value="false"/>
   </properties>
   <point/>
  </object>
  <object id="49" name="enemy" x="1000" y="400">
   <properties>
    <property name="actor" value="operator"/>
    <property name="aura" type="bool" value="true"/>
    <property name="chase" type="bool" value="false"/>
    <property name="encounter" value="operator"/>
    <property name="enemy" value="operator"/>
    <property name="once" type="bool" value="false"/>
   </properties>
   <point/>
  </object>
  <object id="50" name="enemy" x="1200" y="400">
   <properties>
    <property name="actor" value="VBO"/>
    <property name="aura" type="bool" value="true"/>
    <property name="chase" type="bool" value="false"/>
    <property name="encounter" value="VBO"/>
    <property name="enemy" value="VBO"/>
    <property name="once" type="bool" value="false"/>
   </properties>
   <point/>
  </object>
  <object id="51" name="enemy" x="1000" y="880">
   <properties>
    <property name="actor" value="kolona"/>
    <property name="aura" type="bool" value="true"/>
    <property name="chase" type="bool" value="false"/>
    <property name="encounter" value="kolona"/>
    <property name="enemy" value="kolona"/>
    <property name="once" type="bool" value="false"/>
   </properties>
   <point/>
  </object>
  <object id="53" name="greedpurg_base" x="1370" y="300" width="40" height="39.3333"/>
  <object id="54" name="greedpurg_gift" x="1370" y="300" width="40" height="39.3333"/>
  <object id="62" name="enemy" x="1200" y="880">
   <properties>
    <property name="actor" value="bell"/>
    <property name="aura" type="bool" value="true"/>
    <property name="chase" type="bool" value="false"/>
    <property name="encounter" value="bell"/>
    <property name="enemy" value="bell"/>
    <property name="once" type="bool" value="false"/>
   </properties>
   <point/>
  </object>
  <object id="63" name="enemy" x="800" y="880">
   <properties>
    <property name="actor" value="telefragger"/>
    <property name="aura" type="bool" value="true"/>
    <property name="chase" type="bool" value="false"/>
    <property name="encounter" value="telefragger"/>
    <property name="enemy" value="telefragger"/>
    <property name="once" type="bool" value="false"/>
   </properties>
   <point/>
  </object>
  <object id="67" name="pylon" x="1320" y="760" width="120" height="120"/>
 </objectgroup>
</map>
